X:1
T:Robin Hood and the Tanner
M:3/4
L:1/4
K:F
 A| F E D| A2 d| A3/2 G/2 F| G2 A| F- E D| D F G| A3| z A =B| c3/2 =B/2 c|\
 A- =B c| d =B A| G2 d| c3/2 A/2 G| A F D| D- C2| F3/2- G/2 A| _B A G|\
 A F E| D3-| D z||
